icons/parent-instagram.svg

<?xml version="1.0" encoding="UTF-8"?>
<svg width="32px" height="32px" viewBox="0 0 32 32" version="1.1" xmlns="http://www.w3.org/2000/svg" xmlns:xlink="http://www.w3.org/1999/xlink">
    <!-- Generator: Sketch 62 (91390) - https://sketch.com -->
    <title>instagram-icon-green</title>
    <desc>Created with Sketch.</desc>
    <defs>
        <polygon id="path-1" points="0 0.0287189189 16.4713108 0.0287189189 16.4713108 16.5 0 16.5"></polygon>
    </defs>
    <g id="instagram-icon-green" stroke="none" stroke-width="1" fill="none" fill-rule="evenodd">
        <g id="Group-7" transform="translate(1.000000, 1.000000)">
            <circle id="Oval-Copy-2" stroke="#019A78" stroke-width="1.5" cx="15" cy="15" r="15"></circle>
            <g id="Group-8" transform="translate(6.750000, 6.750000)">
                <g id="Group-3">
                    <mask id="mask-2" fill="white">
                        <use xlink:href="#path-1"></use>
                    </mask>
                    <g id="Clip-2"></g>
                    <path d="M8.23565541,1.51252973 C10.4346149,1.51252973 10.6951959,1.5210027 11.5636014,1.56054324 C12.3666014,1.59711081 12.8025878,1.73148919 13.09275,1.84416486 C13.4771554,1.99355676 13.7515608,2.17208378 14.0397905,2.46016486 C14.3280203,2.74839459 14.5063986,3.0228 14.6557905,3.40720541 C14.7686149,3.69736757 14.9028446,4.1335027 14.9394122,4.93635405 C14.9789527,5.80490811 14.9874257,6.06534054 14.9874257,8.2643 C14.9874257,10.4634081 14.9789527,10.7238405 14.9394122,11.5922459 C14.9028446,12.3952459 14.7686149,12.8313811 14.6557905,13.1215432 C14.5063986,13.5059486 14.3280203,13.7802054 14.0397905,14.0684351 C13.7515608,14.3566649 13.4771554,14.5350432 13.09275,14.6844351 C12.8025878,14.7972595 12.3666014,14.9313405 11.5636014,14.9682054 C10.6953446,15.0075973 10.4347635,15.0160703 8.23565541,15.0160703 C6.0365473,15.0160703 5.77611486,15.0075973 4.90770946,14.9682054 C4.10470946,14.9313405 3.66872297,14.7972595 3.37841216,14.6844351 C2.99415541,14.5350432 2.71975,14.3566649 2.43152027,14.0684351 C2.14329054,13.7802054 1.96491216,13.5059486 1.81552027,13.1215432 C1.70269595,12.8313811 1.56846622,12.3952459 1.53189865,11.5922459 C1.49220946,10.7238405 1.48388514,10.4634081 1.48388514,8.2643 C1.48388514,6.06534054 1.49220946,5.80490811 1.53189865,4.93635405 C1.56846622,4.1335027 1.70269595,3.69736757 1.81552027,3.40720541 C1.96491216,3.0228 2.14329054,2.74839459 2.43152027,2.46016486 C2.71975,2.17208378 2.99415541,1.99355676 3.37841216,1.84416486 C3.66872297,1.73148919 4.10470946,1.59711081 4.90770946,1.56054324 C5.77611486,1.5210027 6.03669595,1.51252973 8.23565541,1.51252973 M8.23565541,0.0287189189 C5.99893919,0.0287189189 5.71858784,0.0380837838 4.84007432,0.0782189189 C3.96349324,0.118205405 3.36488514,0.257489189 2.84089865,0.461137838 C2.29937162,0.671475676 1.84019595,0.953016216 1.38220946,1.41085405 C0.924371622,1.86869189 0.642831081,2.32801622 0.432344595,2.86969189 C0.228695946,3.39352973 0.0895608108,3.99228649 0.0495743243,4.86871892 C0.00943918919,5.74723243 -7.43243243e-05,6.02773243 -7.43243243e-05,8.2643 C-7.43243243e-05,10.5010162 0.00943918919,10.7813676 0.0495743243,11.6598811 C0.0895608108,12.5364622 0.228695946,13.1350703 0.432344595,13.6590568 C0.642831081,14.2004351 0.924371622,14.6597595 1.38220946,15.1177459 C1.84019595,15.5754351 2.29937162,15.8571243 2.84089865,16.0676108 C3.36488514,16.2712595 3.96349324,16.4105432 4.84007432,16.4503811 C5.71858784,16.4905162 5.99893919,16.5000297 8.23565541,16.5000297 C10.4723716,16.5000297 10.752723,16.4905162 11.6312365,16.4503811 C12.5078176,16.4105432 13.1064257,16.2712595 13.6302635,16.0676108 C14.1719392,15.8571243 14.6311149,15.5754351 15.0891014,15.1177459 C15.5469392,14.6597595 15.8284797,14.2004351 16.0389662,13.6590568 C16.2426149,13.1350703 16.38175,12.5364622 16.4217365,11.6598811 C16.4618716,10.7813676 16.4713851,10.5010162 16.4713851,8.2643 C16.4713851,6.02773243 16.4618716,5.74723243 16.4217365,4.86871892 C16.38175,3.99228649 16.2426149,3.39352973 16.0389662,2.86969189 C15.8284797,2.32801622 15.5469392,1.86869189 15.0891014,1.41085405 C14.6311149,0.953016216 14.1719392,0.671475676 13.6302635,0.461137838 C13.1064257,0.257489189 12.5078176,0.118205405 11.6312365,0.0782189189 C10.752723,0.0380837838 10.4723716,0.0287189189 8.23565541,0.0287189189" id="Fill-1" fill="#019A78" mask="url(#mask-2)"></path>
                </g>
                <path d="M8.25,4.125 C5.97175308,4.125 4.125,5.97172062 4.125,8.24992751 C4.125,10.5281344 5.97175308,12.375 8.25,12.375 C10.5282469,12.375 12.375,10.5281344 12.375,8.24992751 C12.375,5.97172062 10.5282469,4.125 8.25,4.125 M8.25,10.9275782 C6.77108963,10.9275782 5.57230228,9.72881188 5.57230228,8.24992751 C5.57230228,6.77118812 6.77108963,5.57227685 8.25,5.57227685 C9.72876538,5.57227685 10.9276977,6.77118812 10.9276977,8.24992751 C10.9276977,9.72881188 9.72876538,10.9275782 8.25,10.9275782" id="Fill-4" fill="#019A78"></path>
                <path d="M13.75,3.78125 C13.75,4.3508574 13.288237,4.8125 12.7188276,4.8125 C12.149263,4.8125 11.6875,4.3508574 11.6875,3.78125 C11.6875,3.2116426 12.149263,2.75 12.7188276,2.75 C13.288237,2.75 13.75,3.2116426 13.75,3.78125" id="Fill-6" fill="#019A78"></path>
            </g>
        </g>
    </g>
</svg>

<svg width="32" height="32" xmlns="http://www.w3.org/2000/svg" xmlns:xlink="http://www.w3.org/1999/xlink"><defs><path id="a" d="M0 .029h16.471V16.5H0z"/></defs><g transform="translate(1 1)" fill="none" fill-rule="evenodd"><circle stroke="#019A78" stroke-width="1.5" cx="15" cy="15" r="15"/><g transform="translate(6.75 6.75)"><mask id="b" fill="#fff"><use xlink:href="#a"/></mask><path d="M8.236 1.513c2.199 0 2.46.008 3.328.048.803.036 1.239.17 1.529.283.384.15.659.328.947.616.288.288.466.563.616.947.113.29.247.727.283 1.53.04.868.048 1.128.048 3.327 0 2.2-.008 2.46-.048 3.328-.036.803-.17 1.24-.283 1.53-.15.384-.328.658-.616.946a2.552 2.552 0 01-.947.616c-.29.113-.726.247-1.53.284-.868.04-1.128.048-3.327.048-2.2 0-2.46-.008-3.328-.048-.803-.037-1.24-.17-1.53-.284a2.552 2.552 0 01-.946-.616 2.551 2.551 0 01-.616-.946c-.113-.29-.248-.727-.284-1.53-.04-.868-.048-1.129-.048-3.328s.008-2.46.048-3.328c.036-.802.17-1.239.284-1.529.149-.384.327-.659.616-.947.288-.288.562-.466.946-.616.29-.113.727-.247 1.53-.283.868-.04 1.129-.048 3.328-.048m0-1.484c-2.237 0-2.517.01-3.396.05-.877.04-1.475.178-2 .382-.54.21-1 .492-1.458.95-.458.458-.74.917-.95 1.459C.23 3.394.09 3.992.05 4.869.01 5.747 0 6.028 0 8.264c0 2.237.01 2.517.05 3.396.04.876.179 1.475.382 2 .21.54.492 1 .95 1.458.458.457.917.74 1.459.95.524.203 1.122.343 2 .382.878.04 1.158.05 3.395.05 2.236 0 2.517-.01 3.395-.05.877-.04 1.475-.179 2-.382.54-.21 1-.493 1.458-.95a4.04 4.04 0 00.95-1.459c.204-.524.343-1.123.383-2 .04-.878.05-1.158.05-3.395 0-2.236-.01-2.517-.05-3.395-.04-.877-.18-1.475-.383-2a4.037 4.037 0 00-.95-1.458A4.035 4.035 0 0013.63.46c-.524-.204-1.122-.343-1.999-.383-.878-.04-1.159-.05-3.395-.05" fill="#019A78" mask="url(#b)"/></g><path d="M15 10.875a4.125 4.125 0 100 8.25 4.125 4.125 0 000-8.25m0 6.803a2.678 2.678 0 110-5.356 2.678 2.678 0 010 5.356M20.5 10.531a1.031 1.031 0 11-2.062 0 1.031 1.031 0 012.062 0" fill="#019A78"/></g></svg>
